symbols/web/manage_history/materialsymbolsrounded/manage_history_wght200grad200_40px.svg

<svg xmlns="http://www.w3.org/2000/svg" height="40" width="40"><path d="M20.333 5.792q5.667 0 9.709 3.833 4.041 3.833 4.375 9.417v.583h-2.125V19q-.375-4.667-3.792-7.875t-8.167-3.208q-2.791 0-5.229 1.187-2.437 1.188-4.146 3.271h3.25q.417 0 .75.313.334.312.334.729 0 .458-.334.771-.333.312-.75.312H8.917q-.667 0-1.105-.438-.437-.437-.437-1.104V7.625q0-.417.313-.729.312-.313.729-.313.458 0 .771.313.312.312.312.729v3.167q1.958-2.417 4.812-3.709 2.855-1.291 6.021-1.291Zm2.125 18.375-3.375-3.292q-.208-.208-.312-.479-.104-.271-.104-.604V12.25q0-.458.312-.771.313-.312.729-.312.417 0 .75.312.334.313.334.771v7.292l2.791 2.708Zm-3.666 10q-4.875-.459-8.354-3.729-3.48-3.271-4.146-7.938-.125-.5.146-.875.27-.375.729-.417.375-.041.687.125.313.167.438.5.75 4 3.312 6.625 2.563 2.625 6.146 3.125h.167l1.458 2.542q-.125.042-.271.042h-.312Zm11.791 2.916q-.791-.125-1.458-.521-.667-.395-1.167-.979l-1.708.542q-.208 0-.396-.063-.187-.062-.271-.229l-.416-.666q-.125-.209-.125-.438t.208-.396l1.375-1.166q-.25-.709-.25-1.438t.25-1.479l-1.375-1.167q-.208-.166-.208-.395 0-.23.125-.438l.375-.667q.083-.208.312-.312.229-.104.438-.021l1.666.542q.5-.5 1.188-.917.687-.417 1.437-.583l.292-1.792q.042-.25.25-.396.208-.146.417-.146h.75q.208 0 .416.167.209.167.25.417l.25 1.75q.75.25 1.48.625.729.375 1.229.958l1.708-.5q.167-.083.396.021.229.104.354.312l.375.584q.125.25.125.479 0 .229-.208.354l-1.459 1.25q.209.667.23 1.375.02.708-.23 1.333l1.5 1.25q.167.167.188.375.021.209-.104.417l-.375.667q-.084.208-.292.291-.208.084-.417.042l-1.791-.583q-.5.583-1.229.958-.73.375-1.48.583l-.25 1.792q-.041.208-.25.354-.208.146-.416.146h-.75q-.209 0-.417-.125t-.25-.375Zm1.334-1.625q1.583 0 2.666-1.062 1.084-1.063 1.084-2.646 0-1.542-1.084-2.667-1.083-1.125-2.666-1.125-1.625 0-2.688 1.125-1.062 1.125-1.062 2.667 0 1.583 1.062 2.646 1.063 1.062 2.688 1.062Z"/></svg>

<svg xmlns="http://www.w3.org/2000/svg" height="40" width="40"><path d="M20.333 5.792Q26 5.792 30.042 9.625Q34.083 13.458 34.417 19.042Q34.417 19.208 34.417 19.333Q34.417 19.458 34.417 19.625H32.292Q32.292 19.458 32.292 19.333Q32.292 19.208 32.292 19Q31.917 14.333 28.5 11.125Q25.083 7.917 20.333 7.917Q17.542 7.917 15.104 9.104Q12.667 10.292 10.958 12.375H14.208Q14.625 12.375 14.958 12.688Q15.292 13 15.292 13.417Q15.292 13.875 14.958 14.188Q14.625 14.5 14.208 14.5H8.917Q8.25 14.5 7.812 14.062Q7.375 13.625 7.375 12.958V7.625Q7.375 7.208 7.688 6.896Q8 6.583 8.417 6.583Q8.875 6.583 9.188 6.896Q9.5 7.208 9.5 7.625V10.792Q11.458 8.375 14.312 7.083Q17.167 5.792 20.333 5.792ZM22.458 24.167 19.083 20.875Q18.875 20.667 18.771 20.396Q18.667 20.125 18.667 19.792V12.25Q18.667 11.792 18.979 11.479Q19.292 11.167 19.708 11.167Q20.125 11.167 20.458 11.479Q20.792 11.792 20.792 12.25V19.542L23.583 22.25ZM18.792 34.167Q13.917 33.708 10.438 30.438Q6.958 27.167 6.292 22.5Q6.167 22 6.438 21.625Q6.708 21.25 7.167 21.208Q7.542 21.167 7.854 21.333Q8.167 21.5 8.292 21.833Q9.042 25.833 11.604 28.458Q14.167 31.083 17.75 31.583H17.917L19.375 34.125Q19.25 34.167 19.104 34.167Q18.958 34.167 18.792 34.167ZM30.583 37.083Q29.792 36.958 29.125 36.562Q28.458 36.167 27.958 35.583L26.25 36.125Q26.042 36.125 25.854 36.062Q25.667 36 25.583 35.833L25.167 35.167Q25.042 34.958 25.042 34.729Q25.042 34.5 25.25 34.333L26.625 33.167Q26.375 32.458 26.375 31.729Q26.375 31 26.625 30.25L25.25 29.083Q25.042 28.917 25.042 28.688Q25.042 28.458 25.167 28.25L25.542 27.583Q25.625 27.375 25.854 27.271Q26.083 27.167 26.292 27.25L27.958 27.792Q28.458 27.292 29.146 26.875Q29.833 26.458 30.583 26.292L30.875 24.5Q30.917 24.25 31.125 24.104Q31.333 23.958 31.542 23.958H32.292Q32.5 23.958 32.708 24.125Q32.917 24.292 32.958 24.542L33.208 26.292Q33.958 26.542 34.688 26.917Q35.417 27.292 35.917 27.875L37.625 27.375Q37.792 27.292 38.021 27.396Q38.25 27.5 38.375 27.708L38.75 28.292Q38.875 28.542 38.875 28.771Q38.875 29 38.667 29.125L37.208 30.375Q37.417 31.042 37.438 31.75Q37.458 32.458 37.208 33.083L38.708 34.333Q38.875 34.5 38.896 34.708Q38.917 34.917 38.792 35.125L38.417 35.792Q38.333 36 38.125 36.083Q37.917 36.167 37.708 36.125L35.917 35.542Q35.417 36.125 34.688 36.5Q33.958 36.875 33.208 37.083L32.958 38.875Q32.917 39.083 32.708 39.229Q32.5 39.375 32.292 39.375H31.542Q31.333 39.375 31.125 39.25Q30.917 39.125 30.875 38.875ZM31.917 35.458Q33.5 35.458 34.583 34.396Q35.667 33.333 35.667 31.75Q35.667 30.208 34.583 29.083Q33.5 27.958 31.917 27.958Q30.292 27.958 29.229 29.083Q28.167 30.208 28.167 31.75Q28.167 33.333 29.229 34.396Q30.292 35.458 31.917 35.458Z"/></svg>
